Badges/Community/Package/link-wally.svg

<svg width="89" height="32" viewBox="0 0 89 32" fill="none" xmlns="http://www.w3.org/2000/svg">
<g filter="url(#filter0_i_25_2)">
<rect width="89" height="32" rx="4" fill="#AD4646"/>
<g clip-path="url(#clip0_25_2)">
<path d="M16.5067 23.2233L15.7733 26.1567C15.7733 26.1567 22.4467 26.34 25.2333 24.0667C28.02 21.7933 27.3233 21.94 27.3233 21.94L24.39 19.1533L16.5067 23.2233Z" fill="#F2C57E"/>
<path d="M18.4867 23.6267C18.4867 23.6267 18.7067 25.79 19.44 26.1933C19.44 26.1933 15.8833 26.45 15.9567 25.4967L16.47 23.1867L18.4867 23.6267Z" fill="#BD704B"/>
<path d="M15.9933 18.2367C15.9933 18.2367 16.6533 19.1533 16.8 20.51C16.9467 21.9033 15.3333 23.04 18.3033 23.59C20.98 24.0667 26.7367 21.5733 24.8667 19.7033C23.6933 18.53 22.8867 17.5767 23.4 15.3033C23.95 13.03 20.7967 11.6367 20.7967 11.6367L15.9933 18.2367Z" fill="#F2C57E"/>
<path d="M22.9967 17.4667C22.9967 17.4667 23.9867 20.07 27.2133 22.0133L27.47 21.4267C27.47 21.4267 24.7567 20.5833 23.29 17.3567C21.8233 14.13 22.9233 17.4667 22.9967 17.4667ZM17.2033 8.26333C17.2033 8.26333 15.3333 9.07 16.1767 14.8633C16.4333 18.0167 15.1133 17.76 14.8567 17.4667C14.5633 17.21 15.7367 15.5967 15.0767 15.0467C14.4167 14.4967 13.61 15.01 12.8033 13.4333C11.7767 11.38 12.9867 12.2233 13.94 10.4633C14.6367 9.18 15.15 8.44667 15.7367 8.52C16.2133 8.59333 16.6533 7.89667 17.2033 8.26333Z" fill="#BD704B"/>
<path d="M13.4633 14.9367C13.4633 14.9367 13.5367 16.2933 13.28 17.0633C12.8767 18.2 13.9033 19.74 15.4067 18.09C16.91 16.44 13.4633 14.9367 13.4633 14.9367Z" fill="#F2C57E"/>
<path d="M21.09 8.66666C21.09 8.66666 18.1933 7.2 15.8833 8.85C13.5733 10.5 15.4067 10.28 14.0133 12.37C12.62 14.46 13.7567 19.1533 18.23 19.2267C22.7033 19.3 22.63 10.72 22.63 10.72C22.63 10.72 22.19 8.81333 21.09 8.66666Z" fill="#F2C57E"/>
<path d="M20.0633 18.2C20.0633 18.2 18.67 19.4467 18.7433 20.29C18.78 21.1333 22.2267 20.95 19.1833 21.7933C18.34 22.0133 18.3767 23.4067 19.0367 23.6633C19.66 23.92 16.5067 23.4067 16.5433 22.3433C16.58 21.28 17.02 19.4467 15.9567 18.75C15.92 18.75 18.5967 19.5567 20.0633 18.2Z" fill="#BD704B"/>
<path d="M16.5067 22.27C16.5067 22.27 19.2567 23.59 22.08 22.05C24.17 20.9133 24.83 19.6667 24.61 19.41C24.61 19.41 25.1233 19.4467 25.6 20.18C25.9667 20.73 25.38 22.4167 22.3 23.7C19.4033 24.8733 16.8 24.14 16.2867 23.6267C15.81 23.1133 16.5067 22.27 16.5067 22.27Z" fill="#AD4646"/>
<path d="M15.4067 11.93C15.2233 11.93 15.0767 11.7833 15.0767 11.6V10.83C15.0767 10.6467 15.2233 10.5 15.4067 10.5C15.59 10.5 15.7367 10.6467 15.7367 10.83V11.6C15.7367 11.7833 15.59 11.93 15.4067 11.93Z" fill="#3F2418"/>
<path d="M16.25 11.0133C16.25 11.0133 13.83 12.7367 12.9133 13.1033C11.9967 13.47 12.0333 14.46 13.28 15.4867C14.5267 16.5133 18.23 13.8367 16.25 11.0133Z" fill="#F2C57E"/>
<path d="M12.73 14.9C12.73 14.9 13.6467 15.89 13.0967 16.99C12.73 17.7233 13.0967 19.1167 14.4533 18.7133C14.4533 18.7133 12.8767 18.7867 13.5 17.0267C13.72 16.4033 13.72 15.4133 12.73 14.9ZM20.5033 8.41C20.5033 8.41 23.1433 9.47333 22.19 15.2667C21.86 18.42 23.4 18.1633 23.7667 17.87C24.0967 17.6133 24.1333 16.5867 24.9033 16.0733C25.6733 15.56 27.47 13.91 26.5533 12.2967C25.6367 10.6833 24.6833 11.0133 24.0967 9.95C23.5467 8.99667 23.18 8.85 22.52 8.85C21.97 8.88667 21.2 8.04333 20.5033 8.41Z" fill="#BD704B"/>
<path d="M19.77 12.26C19.5867 12.26 19.4033 12.1133 19.4033 11.8933V11.0133C19.4033 10.83 19.55 10.6467 19.77 10.6467C19.9533 10.6467 20.1367 10.7933 20.1367 11.0133V11.8933C20.1 12.1133 19.9533 12.26 19.77 12.26Z" fill="#3F2418"/>
<path d="M19.1833 10.4633C19.1833 10.4633 18.3767 10.0233 19.0367 9.65667C19.88 9.18 20.8333 9.95 20.98 10.39C20.98 10.39 19.99 9.47333 19.1833 9.91333C18.7433 10.1333 19.1833 10.4633 19.1833 10.4633ZM15.7 9.76667C15.6633 9.69333 15.6267 9.65667 15.5533 9.62C15.4433 9.54667 15.26 9.54667 15.1133 9.58333C14.9667 9.62 14.8567 9.73 14.7467 9.80333C14.82 9.62 14.93 9.47333 15.1133 9.4C15.1867 9.36333 15.2967 9.36333 15.37 9.36333C15.5533 9.36333 15.7367 9.43667 15.8833 9.54667C16.03 9.65667 16.1033 9.84 16.1033 10.0233C16.0667 10.17 15.9933 10.3167 15.8467 10.3533C15.81 10.3533 15.7733 10.39 15.7733 10.3533C15.7733 10.3167 15.81 10.28 15.81 10.2433C15.8467 10.17 15.8467 10.0967 15.81 9.98667C15.7733 9.91333 15.7733 9.84 15.7 9.76667ZM14.4167 16.7333C14.4167 16.7333 15.2233 19.4467 18.23 18.7867C20.98 18.1633 21.3833 15.8167 21.3833 15.8167C21.5667 16.3667 20.7967 19.5567 17.0567 19.2633C14.3433 19.0433 14.4167 16.7333 14.4167 16.7333Z" fill="#BD704B"/>
<path d="M15.0033 18.0167C15.0033 18.0167 14.8933 19.08 13.3533 18.53C13.3533 18.53 14.1233 19.41 15.0767 18.4567C15.5167 17.98 15.0033 18.0167 15.0033 18.0167ZM12.5833 14.13C12.4 14.02 12.4 13.7267 12.51 13.5433C12.6567 13.36 12.95 13.2133 13.17 13.1033C14.3067 12.59 15.5167 11.8933 16.36 10.9033C16.36 10.9033 13.7933 12.7 12.4367 13.1767C11.74 13.4333 12.5833 14.13 12.5833 14.13Z" fill="#BD704B"/>
<path d="M12.29 13.58C11.8867 13.9833 12.5467 15.1933 13.3533 15.56C14.27 15.9633 15.59 14.3867 15.3333 13.9467C15.04 13.36 13.1333 12.7 12.29 13.58Z" fill="#AD4646"/>
<mask id="mask0_25_2" style="mask-type:luminance" maskUnits="userSpaceOnUse" x="12" y="13" width="4" height="3">
<path d="M12.29 13.58C11.8867 13.9833 12.5467 15.1933 13.3533 15.56C14.27 15.9633 15.59 14.3867 15.3333 13.9467C15.04 13.36 13.1333 12.7 12.29 13.58Z" fill="white"/>
</mask>
<g mask="url(#mask0_25_2)">
<path d="M13.9033 14.9367C13.83 14.8267 13.83 14.6433 13.9033 14.57C13.94 14.5333 13.9767 14.4967 14.0133 14.4967C14.0867 14.46 14.16 14.46 14.1967 14.46C14.5267 14.4233 14.8933 14.57 15.1133 14.8267C15.2967 15.01 15.2233 15.1933 15.04 15.3033C14.82 15.4133 14.5267 15.45 14.27 15.34C14.16 15.2667 14.0133 15.12 13.9033 14.9367ZM13.0967 14.9733C13.1333 14.8633 13.17 14.7167 13.0967 14.6067C13.06 14.57 13.0233 14.5333 12.9867 14.5333C12.95 14.4967 12.8767 14.4967 12.84 14.4967C12.5833 14.46 12.3267 14.6067 12.1067 14.8633C11.96 15.0467 12.0333 15.23 12.18 15.34C12.3633 15.45 12.5833 15.4867 12.7667 15.3767C12.9133 15.3033 13.0233 15.1567 13.0967 14.9733Z" fill="#6A2524"/>
</g>
<path d="M19 27C12.95 27 8 22.0867 8 16C8 9.91333 12.95 5 19 5C25.05 5 30 9.95 30 16C30 22.05 25.0867 27 19 27ZM19 6.46667C13.7567 6.46667 9.46667 10.7567 9.46667 16C9.46667 21.2433 13.7567 25.5333 19 25.5333C24.2433 25.5333 28.5333 21.2433 28.5333 16C28.5333 10.7567 24.2433 6.46667 19 6.46667Z" fill="#AD4646"/>
<path d="M15.8833 8.63C15.8833 8.63 19.22 7.23667 21.64 9.36333C21.64 9.36333 21.5667 8.37333 19.6967 7.97C18.7067 7.75 16.5067 7.78667 15.8833 8.63Z" fill="#BD704B"/>
<path d="M15.59 17.0633C15.7115 17.0633 15.81 16.9977 15.81 16.9167C15.81 16.8357 15.7115 16.77 15.59 16.77C15.4685 16.77 15.37 16.8357 15.37 16.9167C15.37 16.9977 15.4685 17.0633 15.59 17.0633Z" fill="#BD704B"/>
<path d="M17.02 17.8333C17.1415 17.8333 17.24 17.7677 17.24 17.6867C17.24 17.6057 17.1415 17.54 17.02 17.54C16.8985 17.54 16.8 17.6057 16.8 17.6867C16.8 17.7677 16.8985 17.8333 17.02 17.8333Z" fill="#BD704B"/>
<path d="M18.3033 17.7967C18.4248 17.7967 18.5233 17.731 18.5233 17.65C18.5233 17.569 18.4248 17.5033 18.3033 17.5033C18.1818 17.5033 18.0833 17.569 18.0833 17.65C18.0833 17.731 18.1818 17.7967 18.3033 17.7967Z" fill="#BD704B"/>
<path d="M17.68 18.4567C17.8015 18.4567 17.9 18.391 17.9 18.31C17.9 18.229 17.8015 18.1633 17.68 18.1633C17.5585 18.1633 17.46 18.229 17.46 18.31C17.46 18.391 17.5585 18.4567 17.68 18.4567Z" fill="#BD704B"/>
<path d="M16.0667 18.0533C16.1882 18.0533 16.2867 17.9877 16.2867 17.9067C16.2867 17.8257 16.1882 17.76 16.0667 17.76C15.9452 17.76 15.8467 17.8257 15.8467 17.9067C15.8467 17.9877 15.9452 18.0533 16.0667 18.0533Z" fill="#BD704B"/>
</g>
<path d="M38.158 20H35.782L34.22 12.3H35.892L36.871 18.174H37.047L38.147 12.3H40.523L41.623 18.174H41.799L42.778 12.3H44.45L42.888 20H40.512L39.423 13.95H39.247L38.158 20ZM46.6534 20.11C45.6854 20.11 44.8164 19.516 44.8164 18.295C44.8164 17.195 45.6084 16.48 47.1594 16.48H48.5014V16.381C48.5014 15.6 48.0394 15.336 47.4344 15.336C46.7964 15.336 46.2904 15.611 45.6744 16.073L45.0034 15.028C45.7074 14.5 46.5214 14.126 47.4674 14.126C48.8864 14.126 49.9094 14.709 49.9094 16.337V20H48.5014V19.351L48.3254 19.285C47.9294 19.824 47.4124 20.11 46.6534 20.11ZM47.1154 18.9C47.7314 18.9 48.2154 18.559 48.5014 18.152V17.492H47.1374C46.5544 17.492 46.2244 17.734 46.2244 18.196C46.2244 18.625 46.5874 18.9 47.1154 18.9ZM52.7736 20H51.3656V12.19H52.7736V20ZM55.6311 20H54.2231V12.19H55.6311V20ZM57.9935 22.2C57.5975 22.2 57.2565 22.112 56.9925 22.024V20.737C57.3445 20.847 57.5975 20.902 57.9385 20.902C58.4115 20.902 58.6865 20.66 58.8625 20.22L58.9505 20H58.7195L56.4865 14.236H58.0595L59.4345 18.064H59.6105L60.9525 14.236H62.5145L60.3035 20.176C59.7315 21.705 59.0165 22.2 57.9935 22.2Z" fill="white"/>
<path d="M72.625 11.1875C72.7812 11.1875 72.9141 11.2422 73.0234 11.3516C73.1328 11.4609 73.1875 11.5938 73.1875 11.75C73.1875 11.9062 73.1328 12.0391 73.0234 12.1484C72.9141 12.2578 72.7812 12.3125 72.625 12.3125H69.0625V20.1875H76.9375V16.625C76.9375 16.4688 76.9922 16.3359 77.1016 16.2266C77.2109 16.1172 77.3438 16.0625 77.5 16.0625C77.6562 16.0625 77.7891 16.1172 77.8984 16.2266C78.0078 16.3359 78.0625 16.4688 78.0625 16.625V20.375C78.0625 20.543 78.0195 20.6992 77.9336 20.8438C77.8516 20.9883 77.7383 21.1016 77.5938 21.1836C77.4492 21.2695 77.293 21.3125 77.125 21.3125H68.875C68.707 21.3125 68.5508 21.2695 68.4062 21.1836C68.2617 21.1016 68.1465 20.9883 68.0605 20.8438C67.9785 20.6992 67.9375 20.543 67.9375 20.375V12.125C67.9375 11.957 67.9785 11.8008 68.0605 11.6562C68.1465 11.5117 68.2617 11.3984 68.4062 11.3164C68.5508 11.2305 68.707 11.1875 68.875 11.1875H72.625ZM77.5 11.1875C77.6562 11.1875 77.7891 11.2422 77.8984 11.3516C78.0078 11.4609 78.0625 11.5938 78.0625 11.75V14C78.0625 14.1562 78.0078 14.2891 77.8984 14.3984C77.7891 14.5078 77.6562 14.5625 77.5 14.5625C77.3438 14.5625 77.2109 14.5078 77.1016 14.3984C76.9922 14.2891 76.9375 14.1562 76.9375 14V13.1094L73.3984 16.6484C73.2891 16.7578 73.1562 16.8125 73 16.8125C72.8438 16.8125 72.7109 16.7578 72.6016 16.6484C72.4922 16.5391 72.4375 16.4062 72.4375 16.25C72.4375 16.0938 72.4922 15.9609 72.6016 15.8516L76.1406 12.3125H75.25C75.0938 12.3125 74.9609 12.2578 74.8516 12.1484C74.7422 12.0391 74.6875 11.9062 74.6875 11.75C74.6875 11.5938 74.7422 11.4609 74.8516 11.3516C74.9609 11.2422 75.0938 11.1875 75.25 11.1875H77.5Z" fill="white"/>
</g>
<defs>
<filter id="filter0_i_25_2" x="0" y="-2" width="89" height="34" filterUnits="userSpaceOnUse" color-interpolation-filters="sRGB">
<feFlood flood-opacity="0" result="BackgroundImageFix"/>
<feBlend mode="normal" in="SourceGraphic" in2="BackgroundImageFix" result="shape"/>
<feColorMatrix in="SourceAlpha" type="matrix" values="0 0 0 0 0 0 0 0 0 0 0 0 0 0 0 0 0 0 127 0" result="hardAlpha"/>
<feOffset dy="-2"/>
<feGaussianBlur stdDeviation="1.65"/>
<feComposite in2="hardAlpha" operator="arithmetic" k2="-1" k3="1"/>
<feColorMatrix type="matrix" values="0 0 0 0 1 0 0 0 0 1 0 0 0 0 1 0 0 0 0.11 0"/>
<feBlend mode="normal" in2="shape" result="effect1_innerShadow_25_2"/>
</filter>
<clipPath id="clip0_25_2">
<rect width="22" height="22" fill="white" transform="translate(8 5)"/>
</clipPath>
</defs>
</svg>

<svg xmlns="http://www.w3.org/2000/svg" width="89" height="32" fill="none">
  <g filter="url(#a)">
    <rect width="89" height="32" fill="#ad4646" rx="4"/>
    <g clip-path="url(#b)">
      <path fill="#f2c57e" d="m16.507 23.223-.734 2.934s6.674.183 9.46-2.09c2.787-2.274 2.09-2.127 2.09-2.127l-2.933-2.787z"/>
      <path fill="#bd704b" d="M18.487 23.627s.22 2.163.953 2.566c0 0-3.557.257-3.483-.696l.513-2.31z"/>
      <path fill="#f2c57e" d="M15.993 18.237s.66.916.807 2.273c.147 1.393-1.467 2.53 1.503 3.08 2.677.477 8.434-2.017 6.564-3.887-1.174-1.173-1.98-2.126-1.467-4.4.55-2.273-2.603-3.666-2.603-3.666z"/>
      <path fill="#bd704b" d="M22.997 17.467s.99 2.603 4.216 4.546l.257-.586s-2.713-.844-4.18-4.07-.367.11-.293.11m-5.794-9.204s-1.87.807-1.026 6.6c.256 3.154-1.064 2.897-1.32 2.604-.294-.257.88-1.87.22-2.42s-1.467-.037-2.274-1.614c-1.026-2.053.184-1.21 1.137-2.97.697-1.283 1.21-2.016 1.797-1.943.476.073.916-.623 1.466-.257"/>
      <path fill="#f2c57e" d="M13.463 14.937s.074 1.356-.183 2.126c-.403 1.137.623 2.677 2.127 1.027s-1.944-3.153-1.944-3.153"/>
      <path fill="#f2c57e" d="M21.09 8.667s-2.897-1.467-5.207.183-.476 1.43-1.87 3.52c-1.393 2.09-.256 6.783 4.217 6.857s4.4-8.507 4.4-8.507-.44-1.907-1.54-2.053"/>
      <path fill="#bd704b" d="M20.063 18.2s-1.393 1.247-1.32 2.09c.037.843 3.484.66.44 1.503-.843.22-.806 1.614-.146 1.87.623.257-2.53-.256-2.494-1.32.037-1.063.477-2.896-.586-3.593-.037 0 2.64.807 4.106-.55"/>
      <path fill="#ad4646" d="M16.507 22.27s2.75 1.32 5.573-.22c2.09-1.137 2.75-2.383 2.53-2.64 0 0 .513.037.99.77.367.55-.22 2.237-3.3 3.52-2.897 1.173-5.5.44-6.013-.073-.477-.514.22-1.357.22-1.357"/>
      <path fill="#3f2418" d="M15.407 11.93a.33.33 0 0 1-.33-.33v-.77c0-.183.146-.33.33-.33.183 0 .33.147.33.33v.77c0 .183-.147.33-.33.33"/>
      <path fill="#f2c57e" d="M16.25 11.013s-2.42 1.724-3.337 2.09c-.916.367-.88 1.357.367 2.384s4.95-1.65 2.97-4.474"/>
      <path fill="#bd704b" d="M12.73 14.9s.917.99.367 2.09c-.367.733 0 2.127 1.356 1.723 0 0-1.576.074-.953-1.686.22-.624.22-1.614-.77-2.127m7.773-6.49s2.64 1.063 1.687 6.857c-.33 3.153 1.21 2.896 1.577 2.603.33-.257.366-1.283 1.136-1.797.77-.513 2.567-2.163 1.65-3.776-.916-1.614-1.87-1.284-2.456-2.347-.55-.953-.917-1.1-1.577-1.1-.55.037-1.32-.807-2.017-.44"/>
      <path fill="#3f2418" d="M19.77 12.26a.37.37 0 0 1-.367-.367v-.88a.367.367 0 0 1 .734 0v.88c-.037.22-.184.367-.367.367"/>
      <path fill="#bd704b" d="M19.183 10.463s-.806-.44-.146-.806c.843-.477 1.796.293 1.943.733 0 0-.99-.917-1.797-.477-.44.22 0 .55 0 .55M15.7 9.767a.3.3 0 0 0-.147-.147c-.11-.073-.293-.073-.44-.037-.146.037-.256.147-.366.22.073-.183.183-.33.366-.403.074-.037.184-.037.257-.037.183 0 .367.074.513.184s.22.293.22.476c-.036.147-.11.294-.256.33-.037 0-.074.037-.074 0 0-.036.037-.073.037-.11.037-.073.037-.146 0-.256-.037-.074-.037-.147-.11-.22m-1.283 6.966s.806 2.714 3.813 2.054c2.75-.624 3.153-2.97 3.153-2.97.184.55-.586 3.74-4.326 3.446-2.714-.22-2.64-2.53-2.64-2.53"/>
      <path fill="#bd704b" d="M15.003 18.017s-.11 1.063-1.65.513c0 0 .77.88 1.724-.073.44-.477-.074-.44-.074-.44m-2.42-3.887c-.183-.11-.183-.403-.073-.587.147-.183.44-.33.66-.44 1.137-.513 2.347-1.21 3.19-2.2 0 0-2.567 1.797-3.923 2.274-.697.256.146.953.146.953"/>
      <path fill="#ad4646" d="M12.29 13.58c-.403.403.257 1.613 1.063 1.98.917.403 2.237-1.173 1.98-1.613-.293-.587-2.2-1.247-3.043-.367"/>
      <mask id="c" width="4" height="3" x="12" y="13" maskUnits="userSpaceOnUse" style="mask-type:luminance">
        <path fill="#fff" d="M12.29 13.58c-.403.403.257 1.613 1.063 1.98.917.403 2.237-1.173 1.98-1.613-.293-.587-2.2-1.247-3.043-.367"/>
      </mask>
      <g mask="url(#c)">
        <path fill="#6a2524" d="M13.903 14.937c-.073-.11-.073-.294 0-.367.037-.037.074-.073.11-.073.074-.037.147-.037.184-.037.33-.037.696.11.916.367.184.183.11.366-.073.476a.94.94 0 0 1-.77.037 1.3 1.3 0 0 1-.367-.403m-.806.036c.036-.11.073-.256 0-.366-.037-.037-.074-.074-.11-.074-.037-.036-.11-.036-.147-.036-.257-.037-.513.11-.733.366-.147.184-.074.367.073.477.183.11.403.147.587.037.146-.074.256-.22.33-.404"/>
      </g>
      <path fill="#ad4646" d="M19 27c-6.05 0-11-4.913-11-11S12.95 5 19 5s11 4.95 11 11-4.913 11-11 11m0-20.533c-5.243 0-9.533 4.29-9.533 9.533s4.29 9.533 9.533 9.533 9.533-4.29 9.533-9.533S24.243 6.467 19 6.467"/>
      <path fill="#bd704b" d="M15.883 8.63s3.337-1.393 5.757.733c0 0-.073-.99-1.943-1.393-.99-.22-3.19-.183-3.814.66m-.293 8.433c.121 0 .22-.065.22-.146s-.099-.147-.22-.147-.22.066-.22.147.099.146.22.146m1.43.77c.122 0 .22-.065.22-.146s-.098-.147-.22-.147-.22.066-.22.147.098.146.22.146m1.283-.036c.122 0 .22-.066.22-.147s-.098-.147-.22-.147c-.121 0-.22.066-.22.147s.099.147.22.147m-.623.66c.122 0 .22-.066.22-.147s-.098-.147-.22-.147-.22.066-.22.147.098.147.22.147m-1.613-.404c.121 0 .22-.065.22-.146s-.099-.147-.22-.147c-.122 0-.22.066-.22.147s.098.146.22.146"/>
    </g>
    <path fill="#fff" d="M38.158 20h-2.376l-1.562-7.7h1.672l.979 5.874h.176l1.1-5.874h2.376l1.1 5.874h.176l.979-5.874h1.672L42.888 20h-2.376l-1.089-6.05h-.176zm8.495.11c-.968 0-1.837-.594-1.837-1.815 0-1.1.792-1.815 2.343-1.815h1.342v-.099c0-.781-.462-1.045-1.067-1.045-.638 0-1.144.275-1.76.737l-.67-1.045c.703-.528 1.517-.902 2.463-.902 1.42 0 2.442.583 2.442 2.211V20h-1.408v-.649l-.176-.066c-.396.539-.913.825-1.672.825m.462-1.21c.616 0 1.1-.341 1.386-.748v-.66h-1.364c-.583 0-.913.242-.913.704 0 .429.363.704.891.704m5.659 1.1h-1.408v-7.81h1.408zm2.857 0h-1.408v-7.81h1.408zm2.362 2.2c-.396 0-.736-.088-1-.176v-1.287c.351.11.604.165.945.165.473 0 .749-.242.924-.682l.088-.22h-.23l-2.233-5.764h1.572l1.376 3.828h.175l1.343-3.828h1.561l-2.21 5.94c-.573 1.529-1.288 2.024-2.31 2.024m14.631-11.012q.235 0 .398.164.165.164.165.398t-.165.398a.54.54 0 0 1-.398.165h-3.562v7.874h7.874v-3.562q0-.235.165-.398a.54.54 0 0 1 .398-.165q.235 0 .398.165.165.164.165.398v3.75a.9.9 0 0 1-.13.469.9.9 0 0 1-.34.34.9.9 0 0 1-.468.128h-8.25a.9.9 0 0 1-.469-.128.93.93 0 0 1-.346-.34.93.93 0 0 1-.123-.469v-8.25q0-.252.124-.469a.93.93 0 0 1 .345-.34.9.9 0 0 1 .469-.129zm4.875 0q.235 0 .398.164.165.164.165.398V14q0 .235-.165.398a.54.54 0 0 1-.398.165.54.54 0 0 1-.398-.165.54.54 0 0 1-.165-.398v-.89l-3.539 3.538a.54.54 0 0 1-.398.165.54.54 0 0 1-.398-.165.54.54 0 0 1-.165-.398q0-.235.165-.398l3.539-3.54h-.891a.54.54 0 0 1-.398-.164.54.54 0 0 1-.165-.398q0-.235.165-.398a.54.54 0 0 1 .398-.165z"/>
  </g>
  <defs>
    <clipPath id="b">
      <path fill="#fff" d="M8 5h22v22H8z"/>
    </clipPath>
    <filter id="a" width="89" height="34" x="0" y="-2" color-interpolation-filters="sRGB" filterUnits="userSpaceOnUse">
      <feFlood flood-opacity="0" result="BackgroundImageFix"/>
      <feBlend in="SourceGraphic" in2="BackgroundImageFix" result="shape"/>
      <feColorMatrix in="SourceAlpha" result="hardAlpha" values="0 0 0 0 0 0 0 0 0 0 0 0 0 0 0 0 0 0 127 0"/>
      <feOffset dy="-2"/>
      <feGaussianBlur stdDeviation="1.65"/>
      <feComposite in2="hardAlpha" k2="-1" k3="1" operator="arithmetic"/>
      <feColorMatrix values="0 0 0 0 1 0 0 0 0 1 0 0 0 0 1 0 0 0 0.11 0"/>
      <feBlend in2="shape" result="effect1_innerShadow_25_2"/>
    </filter>
  </defs>
</svg>
